client/public/img/game/shared/projectiles/proj_smoke.svg

<?xml version="1.0" encoding="UTF-8" standalone="no"?>
<svg
   width="30"
   height="65"
   viewBox="0 0 30 65"
   fill="none"
   version="1.1"
   id="svg5"
   xmlns="http://www.w3.org/2000/svg"
   xmlns:svg="http://www.w3.org/2000/svg">
  <defs
     id="defs5" />
  <path
     d="M21.7974 4.433C21.7974 4.91459 21.9886 5.37642 22.329 5.71696C22.6693 6.05749 23.131 6.24882 23.6124 6.24882C23.8507 6.24883 24.0867 6.20185 24.3069 6.1106C24.5271 6.01934 24.7272 5.88563 24.8958 5.71702C25.0643 5.5484 25.198 5.34823 25.2892 5.12792C25.3804 4.90762 25.4274 4.67147 25.4274 4.433C25.4274 4.19454 25.3804 3.95839 25.2892 3.73808C25.198 3.51778 25.0643 3.31761 24.8958 3.14899C24.7272 2.98038 24.5271 2.84667 24.3069 2.75541C24.0867 2.66416 23.8507 2.61718 23.6124 2.61719C23.131 2.61719 22.6693 2.80846 22.329 3.14899C21.9886 3.48953 21.7974 3.95142 21.7974 4.433Z"
     fill="#373225"
     stroke="#1B1913"
     stroke-width="4"
     stroke-miterlimit="3.99393"
     id="path1" />
  <path
     d="M27.0874 21.2363C27.0874 20.684 26.6397 20.2363 26.0874 20.2363H4.396C3.84371 20.2363 3.396 20.684 3.396 21.2363L3.396 61.6177C3.396 62.17 3.84371 62.6177 4.396 62.6177H26.0874C26.6397 62.6177 27.0874 62.17 27.0874 61.6177L27.0874 21.2363Z"
     fill="#47572B"
     id="path2" />
  <path
     d="M19.0543 3.45508L20.1513 4.43315H23.5937L19.0543 10.6207L20.1513 15.9116V20.2358H10.3896V15.9116H3.396L7.82832 3.45508L19.0543 3.45508Z"
     fill="#4E4735"
     stroke="#1B1913"
     stroke-width="4"
     stroke-miterlimit="3.99393"
     stroke-linecap="square"
     id="path3" />
  <path
     d="M27.0874 46.6621H3.396L3.396 53.1221H27.0874V46.6621Z"
     fill="#9CA38F"
     id="path4" />
  <path
     d="M27.0874 21.2363C27.0874 20.684 26.6397 20.2363 26.0874 20.2363H4.396C3.84371 20.2363 3.396 20.684 3.396 21.2363L3.396 61.6177C3.396 62.17 3.84371 62.6177 4.396 62.6177H26.0874C26.6397 62.6177 27.0874 62.17 27.0874 61.6177L27.0874 21.2363Z"
     stroke="#191F0F"
     stroke-width="4"
     stroke-miterlimit="3.99393"
     id="path5" />
</svg>

<svg xmlns="http://www.w3.org/2000/svg" width="30" height="65" fill="none"><path fill="#373225" stroke="#1B1913" stroke-miterlimit="3.994" stroke-width="4" d="M21.797 4.433a1.816 1.816 0 1 0 3.633 0 1.816 1.816 0 0 0-3.633 0Z"/><path fill="#47572B" d="M27.087 21.236a1 1 0 0 0-1-1H4.396a1 1 0 0 0-1 1v40.382a1 1 0 0 0 1 1h21.691a1 1 0 0 0 1-1z"/><path fill="#4E4735" stroke="#1B1913" stroke-linecap="square" stroke-miterlimit="3.994" stroke-width="4" d="m19.054 3.455 1.097.978h3.443l-4.54 6.188 1.097 5.29v4.325H10.39v-4.324H3.396L7.828 3.455z"/><path fill="#9CA38F" d="M27.087 46.662H3.396v6.46h23.691z"/><path stroke="#191F0F" stroke-miterlimit="3.994" stroke-width="4" d="M27.087 21.236a1 1 0 0 0-1-1H4.396a1 1 0 0 0-1 1v40.382a1 1 0 0 0 1 1h21.691a1 1 0 0 0 1-1z"/></svg>
